X: 12620
T: Farewell To Whisky
R: polka
M: 2/4
K: Gmajor
(G/F/)|DG BG|AE EG|DG B/A/G/A/|Bd.ee/|
e/f/g/e/ dg|c/B/A/G/ AB|DG B/A/G/A/|BG G/:|
|:(B/c/)|dB g(B/c/)|d/c/B/A/ G(B/c/)|dB g(f/g/)|a/g/f/e/ .dd/|
e/f/g/f/ dg|c/B/A/G/ AB|DG B/A/G/A/|BG G/:|

